Humanity/actions/22/help-contents.svg

<?xml version="1.0" encoding="UTF-8" standalone="no"?>
<!-- Created with Inkscape (http://www.inkscape.org/) -->

<svg
   xmlns:svg="http://www.w3.org/2000/svg"
   xmlns="http://www.w3.org/2000/svg"
   xmlns:xlink="http://www.w3.org/1999/xlink"
   version="1.0"
   width="22"
   height="22"
   id="svg2">
  <defs
     id="defs4">
    <linearGradient
       id="linearGradient2490-182-124">
      <stop
         id="stop2788"
         style="stop-color:#1f4b6a;stop-opacity:1"
         offset="0" />
      <stop
         id="stop2790"
         style="stop-color:#4083c2;stop-opacity:1"
         offset="1" />
    </linearGradient>
    <linearGradient
       x1="18.379412"
       y1="44.980297"
       x2="18.379412"
       y2="3.0816143"
       id="linearGradient2412"
       xlink:href="#linearGradient2490-182-124"
       gradientUnits="userSpaceOnUse"
       gradientTransform="matrix(0.5160413,0,0,0.5160413,-1.3849489,-1.3850333)" />
    <linearGradient
       id="linearGradient3242-187-536">
      <stop
         id="stop2778"
         style="stop-color:#8badea;stop-opacity:1"
         offset="0" />
      <stop
         id="stop2780"
         style="stop-color:#6396cd;stop-opacity:1"
         offset="0.26238" />
      <stop
         id="stop2782"
         style="stop-color:#3b7caf;stop-opacity:1"
         offset="0.66093999" />
      <stop
         id="stop2784"
         style="stop-color:#194c70;stop-opacity:1"
         offset="1" />
    </linearGradient>
    <radialGradient
       cx="23.895569"
       cy="3.9900031"
       r="20.397499"
       fx="23.895569"
       fy="3.9900031"
       id="radialGradient2410"
       xlink:href="#linearGradient3242-187-536"
       gradientUnits="userSpaceOnUse"
       gradientTransform="matrix(0,1.2316137,-1.6257082,0,17.486623,-29.720825)" />
    <linearGradient
       id="linearGradient4873">
      <stop
         id="stop4875"
         style="stop-color:white;stop-opacity:1"
         offset="0" />
      <stop
         id="stop4877"
         style="stop-color:white;stop-opacity:0"
         offset="1" />
    </linearGradient>
    <linearGradient
       x1="63.397362"
       y1="-12.489107"
       x2="63.397362"
       y2="5.4675598"
       id="linearGradient2407"
       xlink:href="#linearGradient4873"
       gradientUnits="userSpaceOnUse"
       gradientTransform="matrix(1.0862728,0,0,1.0862481,-56.566568,14.813596)" />
  </defs>
  <g
     id="layer1">
    <path
       d="m 11.000044,0.50174278 c -5.7925529,0 -10.49821688,4.70566162 -10.49821688,10.49821422 0,5.792554 4.70566398,10.498219 10.49821688,10.498216 5.79255,0 10.498219,-4.705662 10.498213,-10.498216 0,-5.7925526 -4.705663,-10.49821422 -10.498213,-10.49821422 z"
       id="path2555"
       style="fill:url(#radialGradient2410);fill-opacity:1;stroke:url(#linearGradient2412);stroke-width:1.00365424;stroke-linecap:round;stroke-linejoin:round;stroke-miterlimit:4;stroke-opacity:1;stroke-dasharray:none;stroke-dashoffset:0" />
    <path
       d="m 20.500041,10.999621 c 0,5.246874 -4.253609,9.500336 -9.499879,9.500336 -5.2467525,0 -9.50012,-4.253509 -9.50012,-9.500336 0,-5.2466314 4.2533675,-9.4996625 9.50012,-9.4996625 5.24627,0 9.499879,4.2530311 9.499879,9.4996625 l 0,0 z"
       id="path2463"
       style="opacity:0.4;fill:none;stroke:url(#linearGradient2407);stroke-width:0.99999994;stroke-miterlimit:4;stroke-opacity:1;stroke-dasharray:none" />
    <path
       d="m 11.455261,13.081732 c -0.03304,-1.179381 0.231187,-2.324308 1.345435,-3.1353041 1.17693,-0.917184 2.310407,-2.0647064 2.190622,-3.4173758 C 14.965168,5.2245246 13.445198,4.2022851 11.807545,4.0553057 9.9654521,3.8001127 7.7365317,4.4311735 7.119258,5.8697764 6.8061912,6.5694642 7.096507,7.8247847 8.1471555,7.8247847 c 0.614526,0 0.8967816,-0.3969667 0.9431516,-0.7600985 C 9.1253911,6.7899292 9.0125901,6.5445738 8.9459742,6.3176225 8.8700688,6.0590261 9.1941001,5.5578397 9.5470161,5.3536366 9.8419171,5.183 10.150459,5.1257827 10.195939,5.1148521 c 1.059073,-0.2545226 2.114816,0.3076836 2.55529,0.9919565 0.440475,0.684273 -0.04435,1.7221827 -0.741427,2.7315093 -0.697074,1.009328 -1.445158,2.1557181 -1.44217,3.3733721 0,0.463561 -0.0413,0.621043 -0.01196,0.808589 0.02345,0.149843 0.519613,0.131735 0.899585,0.06145 z m -0.483327,1.587384 c -1.0126419,-0.05497 -1.7135289,1.092998 -1.1051849,1.824413 0.5432809,0.807553 2.0665129,0.608202 2.3275949,-0.306271 0.27143,-0.711121 -0.381772,-1.530013 -1.22241,-1.518143 l 0,1e-6 z"
       id="path9053"
       style="font-size:72px;font-style:normal;font-weight:bold;opacity:0.2;fill:black;fill-opacity:1;stroke:none;font-family:Standard Symbols L" />
    <path
       d="m 11.455261,14.081732 c -0.03304,-1.179381 0.231187,-2.324309 1.345435,-3.135304 1.17693,-0.917184 2.310407,-2.0647071 2.190622,-3.4173763 C 14.965163,6.2245242 13.445198,5.2022857 11.807545,5.0553054 9.9654521,4.8001123 7.7365317,5.4311731 7.119258,6.869776 6.8061912,7.5694639 7.0965071,8.8247849 8.1471555,8.8247849 c 0.614526,0 0.8967816,-0.396967 0.9431516,-0.760099 C 9.1253911,7.7899288 9.0125901,7.5445743 8.9459742,7.3176221 8.8700688,7.0590267 9.1941001,6.5578393 9.5470161,6.3536372 9.8419171,6.1829996 10.150459,6.1257833 10.195939,6.1148526 c 1.059073,-0.2545226 2.114816,0.3076828 2.55529,0.9919566 0.440475,0.6842729 -0.04435,1.7221827 -0.741427,2.7315107 -0.697074,1.0093261 -1.445158,2.1557161 -1.44217,3.3733691 0,0.463562 -0.0413,0.621044 -0.01196,0.80859 0.02345,0.149844 0.519613,0.131735 0.899585,0.06145 z m -0.483327,1.587383 c -1.0126419,-0.05497 -1.7135289,1.093 -1.1051849,1.824413 0.5432809,0.807554 2.0665129,0.608204 2.3275949,-0.306271 0.27143,-0.71112 -0.381772,-1.530012 -1.22241,-1.518142 l 0,0 z"
       id="path3298"
       style="font-size:72px;font-style:normal;font-weight:bold;fill:white;fill-opacity:1;stroke:none;font-family:Standard Symbols L" />
  </g>
</svg>

<?xml version="1.0" encoding="UTF-8" standalone="no"?>
<!-- Created with Inkscape (http://www.inkscape.org/) -->
<svg id="svg2" xmlns="http://www.w3.org/2000/svg" height="22" width="22" version="1.0" xmlns:xlink="http://www.w3.org/1999/xlink">
 <defs id="defs4">
  <linearGradient id="linearGradient2412" y2="3.0816" gradientUnits="userSpaceOnUse" x2="18.379" gradientTransform="matrix(.51604 0 0 .51604 -1.3849 -1.385)" y1="44.98" x1="18.379">
   <stop id="stop2788" style="stop-color:#1f4b6a" offset="0"/>
   <stop id="stop2790" style="stop-color:#4083c2" offset="1"/>
  </linearGradient>
  <radialGradient id="radialGradient2410" gradientUnits="userSpaceOnUse" cy="3.99" cx="23.896" gradientTransform="matrix(0 1.2316 -1.6257 0 17.487 -29.721)" r="20.397">
   <stop id="stop2778" style="stop-color:#8badea" offset="0"/>
   <stop id="stop2780" style="stop-color:#6396cd" offset=".26238"/>
   <stop id="stop2782" style="stop-color:#3b7caf" offset=".66094"/>
   <stop id="stop2784" style="stop-color:#194c70" offset="1"/>
  </radialGradient>
  <linearGradient id="linearGradient2407" y2="5.4676" gradientUnits="userSpaceOnUse" x2="63.397" gradientTransform="matrix(1.0863 0 0 1.0862 -56.567 14.814)" y1="-12.489" x1="63.397">
   <stop id="stop4875" style="stop-color:#fff" offset="0"/>
   <stop id="stop4877" style="stop-color:#fff;stop-opacity:0" offset="1"/>
  </linearGradient>
 </defs>
 <g id="layer1">
  <path id="path2555" style="stroke-linejoin:round;stroke:url(#linearGradient2412);stroke-linecap:round;stroke-width:1.0037;fill:url(#radialGradient2410)" d="m11 0.50174c-5.7925 0-10.498 4.7057-10.498 10.498-0.00017 5.793 4.7055 10.498 10.498 10.498 5.793 0 10.498-4.705 10.498-10.498 0-5.7926-4.705-10.498-10.498-10.498z"/>
  <path id="path2463" style="opacity:.4;stroke:url(#linearGradient2407);fill:none" d="m20.5 11c0 5.246-4.254 9.5-9.5 9.5-5.2466 0-9.5-4.254-9.5-9.5 0-5.247 4.2534-9.5 9.5-9.5 5.246 0 9.5 4.253 9.5 9.5z"/>
  <path id="path9053" style="opacity:.2" d="m11.455 13.082c-0.033-1.18 0.231-2.325 1.346-3.1356 1.177-0.9172 2.31-2.0647 2.19-3.4173-0.026-1.3046-1.546-2.3268-3.183-2.4738-1.8425-0.2552-4.0715 0.3759-4.6887 1.8145-0.3131 0.6997-0.0228 1.955 1.0279 1.955 0.6145 0 0.8967-0.397 0.9431-0.7601 0.0351-0.2748-0.0777-0.5201-0.1443-0.7471-0.0759-0.2586 0.2481-0.7598 0.601-0.964 0.2949-0.1706 0.603-0.2278 0.649-0.2387 1.059-0.2546 2.115 0.3076 2.555 0.9919 0.441 0.6843-0.044 1.7222-0.741 2.7315s-1.445 2.1557-1.442 3.3737c0 0.463-0.042 0.621-0.012 0.808 0.023 0.15 0.519 0.132 0.899 0.062zm-0.483 1.587c-1.0127-0.055-1.7136 1.093-1.1053 1.825 0.5433 0.807 2.0663 0.608 2.3273-0.307 0.272-0.711-0.381-1.53-1.222-1.518z"/>
  <path id="path3298" style="fill:#fff" d="m11.455 14.082c-0.033-1.18 0.231-2.325 1.346-3.136 1.177-0.917 2.31-2.0643 2.19-3.4169-0.026-1.3046-1.546-2.3268-3.183-2.4738-1.8425-0.2552-4.0715 0.3759-4.6887 1.8145-0.3131 0.6997-0.0228 1.955 1.0279 1.955 0.6145 0 0.8967-0.397 0.9431-0.7601 0.0351-0.2748-0.0777-0.5201-0.1443-0.7471-0.0759-0.2586 0.2481-0.7598 0.601-0.964 0.2949-0.1706 0.603-0.2278 0.649-0.2387 1.059-0.2546 2.115 0.3076 2.555 0.9919 0.441 0.6843-0.044 1.7222-0.741 2.7315-0.697 1.0097-1.445 2.1557-1.442 3.3737 0 0.463-0.042 0.621-0.012 0.808 0.023 0.15 0.519 0.132 0.899 0.062zm-0.483 1.587c-1.0127-0.055-1.7136 1.093-1.1053 1.825 0.5433 0.807 2.0663 0.608 2.3273-0.307 0.272-0.711-0.381-1.53-1.222-1.518z"/>
 </g>
</svg>
